X:1
T:Final Decision, 98.98 D
T:Final Decision, 98.98 D
T:Harmonia Sacra, 1847
T:Public Domain Courtesy of the Cyber Hymnal™
C:Harmonia Sacra, 1847
Z:Public Domain
Z:Courtesy of the Cyber Hymnal™
%%score ( 1 2 ) ( 3 4 )
L:1/8
Q:1/4=150
M:4/4
K:G
V:1 treble 
V:2 treble 
V:3 bass 
V:4 bass 
V:1
|: D4 F2 [FA]2 | [Fd]6 [Af]2 | (e3 d c2) [FA]2 | ([FA]4 [EG]4) | [DF]8 | [DA]4 [DA]2 [DA]2 | %6
 (B3 c d2) [Be]2 | [Ad]4 [Gc]4 | [Fd]8 :| [FA]4 [GB]2 [Gc]2 | [Fd]4 [FA]4 | ([GB]3 [Ac] [Bd]2) G2 | %12
 (F4 [EG]4) | !fermata![FA]4 [Af]4 | ([Gg]2 [Ff]2 [Ee]2) [Dd]2 | [Ee]4 [FA]4 | [Gd]4 [Ac]4 | %17
 [Fd]8 | [Fd]4 [Ac]2 [GB]2 | [FA]4 [FA]4 | ([GB]2 [Bd]2) ([Ac]2 [Ge]2) | ([Fd]4 [EB]4) | [FA]8 | %23
 [FA]4 ([GB]3 [FA] | [GB]2) [Gc]2 [Fd]2 [Bg]2 | [Af]4 [Ae]4 | [Ad]8 |] %27
V:2
|: D4 F2 x2 | x8 | A6 x2 | x8 | x8 | x8 | G6 x2 | x8 | x8 :| x8 | x8 | x6 G2 | F4 x4 | x8 | x8 | %15
 x8 | x8 | x8 | x8 | x8 | x8 | x8 | x8 | x8 | x8 | x8 | x8 |] %27
V:3
|: [D,F,]4 [D,A,]2 [D,A,]2 | [D,A,]6 [D,D]2 | (C3 B, A,2) (DE) | F4 [E,E]4 | [D,D]8 | %5
 [F,D]4 [F,D]2 [F,D]2 | (G,2 A,2 B,2) [G,B,]2 | A,4 [A,,A,]4 | [D,A,]8 :| [D,D]4 [G,D]2 [A,C]2 | %10
 [F,B,]4 [F,C]4 | (D3 C B,2) [G,B,]2 | ([D,A,]4 B,2 C2) | !fermata![D,D]4 [D,D]4 | %14
 (E2 D2 C2) [G,B,]2 | [A,C]4 [A,C]4 | [B,D]4 C2 B,2 | [D,B,]8 | [D,A,]4 [A,,A,]2 B,2 | %19
 [D,D]4 [D,D]4 | (D2 B,2) (C2 A,2) | ([D,A,]4 B,2 C2) | [D,D]8 | [D,D]4 ([G,D]3 [F,C] | %24
 [G,B,]2) A,2 [B,D]2 [G,D]2 | [A,D]4 [A,,E]4 | [D,F]8 |] %27
V:4
|: x8 | x8 | A,6 G,2 | F,2 D,2 x4 | x8 | x8 | G,6 x2 | A,4 x4 | x8 :| x8 | x8 | G,6 x2 | x4 E,4 | %13
 x8 | G,6 x2 | x8 | x4 A,4 | x8 | x6 (B,,C,) | x8 | G,4 A,4 | x4 E,4 | x8 | x8 | x2 A,2 x4 | x8 | %26
 x8 |] %27

